src/main/resources/icons/AllIcons/providers/greenplum.svg

<svg xmlns="http://www.w3.org/2000/svg" width="16" height="16" viewBox="0 0 16 16">
  <g fill="none" fill-rule="evenodd">
    <path fill="#8AC831" d="M8,15 C4.13400675,15 1,11.8659932 1,8 C1,4.13400675 4.13400675,1 8,1 C11.8659932,1 15,4.13400675 15,8 C15,11.8659932 11.8659932,15 8,15 Z M8,14 C11.3137085,14 14,11.3137085 14,8 C14,4.6862915 11.3137085,2 8,2 C4.6862915,2 2,4.6862915 2,8 C2,11.3137085 4.6862915,14 8,14 Z"/>
    <path fill="#8AC831" fill-rule="nonzero" d="M12.2664859,5.39150679 C12.3015548,5.44874363 12.4938238,6.01451634 12,6.5 C11.3536832,7.13540123 10.0332679,8.05655163 9.12171875,9 C8.22911999,9.92383483 7.62160387,11.3129075 7,12 C6.48270347,12.571796 5.88860967,12.5370373 5.73275205,12.4576062 C4.11083042,11.6310119 3,9.94523014 3,8 C3,5.23857625 5.23857625,3 8,3 C9.80555854,3 11.387589,3.95703744 12.2664859,5.39150679 Z M9.89055631,6.46005749 C9.44283997,5.94214416 8.78320651,5.61476142 8.04761032,5.61476142 C6.69889476,5.61476142 5.60554476,6.7153312 5.60554476,8.07295283 C5.60554476,8.89704563 6.00840459,9.62642416 6.626699,10.0724255 C7.24499341,10.5184269 7.62669445,9.35696852 8.45124297,8.45071789 C9.24346664,7.57999509 10.3382726,6.97797082 9.89055631,6.46005749 Z"/>
  </g>
</svg>

<svg xmlns="http://www.w3.org/2000/svg" width="16" height="16" viewBox="0 0 16 16"><rect id="frame" width="16" height="16" fill="none"/><g fill="#8AC831" fill-rule="evenodd"><path d="M8 15A7 7 0 1 1 8 1a7 7 0 0 1 0 14zm0-1A6 6 0 1 0 8 2a6 6 0 0 0 0 12z"/><path fill-rule="nonzero" d="M12.266 5.392c.036.057.228.623-.266 1.108-.646.635-1.967 1.557-2.878 2.5-.893.924-1.5 2.313-2.122 3-.517.572-1.111.537-1.267.458a5 5 0 1 1 6.534-7.066zM9.891 6.46a2.43 2.43 0 0 0-1.843-.845 2.45 2.45 0 0 0-2.442 2.458 2.46 2.46 0 0 0 1.02 2c.619.445 1-.716 1.825-1.622.792-.871 1.887-1.473 1.44-1.99z"/></g></svg>
